/* XPM */
static char *codex_new_east[] = {
/* columns rows colors chars-per-pixel */
"64 64 52 1 ",
"  c #1E241E",
". c #23281E",
"X c #1D2621",
"o c #1E2924",
"O c #222B24",
"+ c #272E24",
"@ c #2B352C",
"# c #29342B",
"$ c #2C3B33",
"% c #2A3730",
"& c #313D33",
"* c #323A2D",
"= c #2E4A3E",
"- c #2E4339",
"; c #32443A",
": c #334B3D",
"> c #3B4C3C",
", c #364335",
"< c #3E4A38",
"1 c #444B38",
"2 c #4C4F35",
"3 c #615E3F",
"4 c #2D4E42",
"5 c #324E41",
"6 c #3A4E41",
"7 c #2D5145",
"8 c #2E5549",
"9 c #2F584C",
"0 c #335346",
"q c #3B5344",
"w c #325649",
"e c #3A5649",
"r c #335A4D",
"t c #3A5A4D",
"y c #345D52",
"u c #3A5E52",
"i c #2F5C50",
"p c #356155",
"a c #3A6256",
"s c #376459",
"d c #39665B",
"f c #3B695E",
"g c #3D6C61",
"h c #435444",
"j c #435A4C",
"k c #475848",
"l c #4D5D4C",
"z c #446559",
"x c #526353",
"c c #436D62",
"v c #4C7266",
"b c #6C684C",
/* pixels */
"#%@@@%%@@%$$$$$$$@$$%$$$$%@$%%%##%@@@$$%$$$$$$@$%$$$$$$%$%@%@%%+",
"%xhhjjzzjzvczcccvxvvvzvzvzkzjjzO@vjkhzzjzcczzzzccczccccczzhzjjzO",
"&hl2;qeeeadttutttzffuudaut61b&eO&hl3,rwyttqaeetyryrrraruueq<b*eO",
"@122+qqtzfgeruupaggftttutq<12+6X@>22+eqetzzgdrrpyyyyyrayue>,2+;O",
"$h+.#tezzggaufudcggauyyyth>#.OeO&e#.+rteeaagueaeguryyruruwq@..wo",
"&h5;wttuttgfggdggggdtuuyutte,6uO&h5<wrryreaggagagferrrrarrr0;:eO",
";kqhttrrrrdgafggggdurtyauyrrhqzO&khhrwyyaatgggafgueautrepyrwqqjO",
";lq1tyryyyugdfgggutrrtucaryr>ezO&l1htryyauaggggggfddeeauurrw>quO",
";je1trypdedggggggptypruffura1ezO&lhqtrrugggffgggggdwqqtguawqq0kO",
";jt>tryygdgggggggfepurpggwateeaO,jqhrrrruffffgggggayeeffdr0eh1hO",
";jqqyyyyagggggggg0rygtfggggtqejo&leeytyrrygfgggggfgdwqdfewre1qjO",
";keerryyragggggggdtygdgggggfqezO;ztttrrryggggfgggffdewtuwwyr>qzO",
";jeqreratggggggggfwyggggggueeejO&xarrrryragggffgfffe0rrrrrry6quO",
",l>qeeeafffgffggguyydffggfreeezO@ktyyttpagggffgfggueqwwrryyrr0uO",
"#21qtfgfggfggffgfgfaafafgfrrreao-z0rrdsagggffgywfurrqwrryyyrrwaO",
"*lewqtgggfffffffgffsgddffdrrreao&zwrrfgggggffgsrrrrrwrryryyrr0uO",
";jwertffffdueqdffffgfffuuwryeeao;awrrrffgfffffywrryrrrrruyrrr0ao",
";jq0agdsdgrwqergffffgfdrryyrreuo;arr0pdfddgdagwryryrwrraserwe6eo",
";z000rfdffpywraffffffffydryrrwuo-zwedffssdfdddwrryrw>wtsdptqq>jO",
"-zq0wwtddffswrstfffffffffyrrr0uo-ztrrsufdfdsfwryrrr0>qudddsq11tO",
"$uw0wwwysdqewrrrrfdddsddyywrrqaO%jtww0radddddaadwrrqqw0wfsur>>hO",
"$zurrrr0pu>1qwsrsdddffda0wrwwq1.@kq0wyufdsssdddfwwp0wwwyysp0w6tO",
"@zrrrrrrdu0wqwpddsdfwyfsrrwrwqjO&j>0usfdsdsdssdfwps0rrww0p00w0uo",
"&zw0rwrrwrwrrr0dsddrwwyswrrwwwuo$jqq>tudsp:adsdsgdsprrrrw0wwr5to",
";j0wwwrrwrrrrrysssssww0wrrrrw0uo$jq0q>>usr>waddddssy0rwrwwr800to",
";j5qqqwwwwrrr9wpspsp0w00rrrww0qO$k>6qqquds6ypfssssppyrww9www0>eO",
"*h:,:q>0rwrrrrrwudy0wwwrrpr0,:6O$j:,>0wqt05wwdsspppsp0wwwww4,;qO",
"&>l3*06qwwrrwrww0yywww0rrr52b@qo&qx3@0000r0pppspsspp09w8w06<b*5O",
"&612+0>q0wwwww9wrrsyw00ryw;12.;O$612.500w9rysypppypyw8ww0q>*2+;O",
"&6+.#:>>000wwwww0ayr00000q>#.+6O$e+.+50:0w0wwyry00yyy08w05:@.O5o",
"$j;-:5qq>0erwrwwqtry>q>qq>6:,,eO$u4-500>>w00eyyr0:yyr>www005,;eO",
"O XXXoOOXoXOoXoX.XXo.O.XoOXo O  +XooooX..oXO.X oX Xoo.OooXXX O  ",
"#@#####@@@%#%#$@##%%%%$$@@@###@###+#####%#%@+#@%@@%%@@+#%@%%##@+",
"@lqtkjjzuzdzclcazzcczzazzzuaejzX@xetjhjafdczjazduadzzxhzaaaaetjO",
"&hl1$00000w0tr00wwr00000q05>3$wX%q1l$05500w0wq0ww0w05te0000,3*0O",
"*q22+06wwwwwyttwwwwrrpwaqq,13+5X%622+550800ttd0w88886tw00q>,3+;O",
"&q+.+00wwwwyssrwwww0ssaaee:+.O0o$q+.+00wywwyppp08wwr0ppa500#..5o",
"*h;,50twwwwwpsypy0w80sssp0w5,;eo@1;&400rpw0yppr0ry0wsppsr004&&0o",
"&h>>wqfwwww8rdpsr0wyyssyy080<>to%k>>00wrpr0sppw8rsrppppy5700>:eo",
"&hq>tspyy0rrysssyww0spsr0880>6to*k>>070yppppppywwyppppp07780>>eo",
"&k>>0rpsw0wppssps0wpsppr0880>>hX&l>>0800yppppppy0yypsp0088w0>>qo",
"&k>>00spy0w0ssyppprsppy0888w>>1 $jq>00w0ypsppppypyyprpr08880>>eo",
"&k>0rsppppwypspyppppppy08rw0<qjO$k>>000pppwpppppyppy5ep08800>>hO",
"&h00wswyppppppspppppyppwrp0:>6to$j:>>0yppw70pyppppp07w008w8505qO",
"&h000r50sprypppppppypyppypr:00to$j50>tpyp88wpyppppyyw808800:wq1.",
"&h:000885yyppppyppyyppyppp0770yo$u056>>p54ypyyypppy5788000500wyo",
"-e00ww887ppyyyyys4050yppyr4770ro$aww0::5777yyyyyyyp7788ww0:5w0ro",
"-uw5007yypyyypypy587wp0rpyw777ro$arw0057777wpyyyyy0877rp:w4445ro",
"-u74780pyyyyyyyy5788857wpyr774ro#h050778778wyyyywryr5yyyr07744wo",
"$uw779yppyyyryyyy478877yyy0777ro#2>0077rr78yryyyrryyryyyy07744wo",
"@u08785y5yyyyyyy84787445y77777ro$j557:wwy00yrryyryryyry54474>:wo",
"@e87787440yyyyyryw887407w77777wo$t::5:5yrryrrryy;5ryryr57704,,qo",
"&u00478779yp00yryypw77w0w74744ro$j:5:wrrrryyrp0w:,5yrryw770:;:qo",
"-t08778790r447yyyy4=77485877;:>.%u:4w0ywrryyy840=:rryyryrry5:4wo",
"&e557777rrr874ryryw7777778874:h.%j:5:w0:wry9wr8y:45r0wyrrw0=440X",
"-e:477774984470yyi447747777775tX%e::005=wrrrwryy0448=4wry95=44>.",
"$q::777740rw47wyrwy8r4;47787440o$h:::50wrr-4wrrr:474740y:87==4wo",
"$q::7477:t0477w84rry95;77r844:6X%h>:>:5r0:=5rrr544=7770w:4444:wo",
"%6-$=474::,474748r9894;4wr44$-5X%q-$=:=044440rw8444477747474$-:X",
"%:l3@444=:477444479=44;594=1b#5X@>2b@54=4744=5rw==444474444>b*:X",
"@,11O=4:4:777447444444;4=4,,2+;X@,,1.==444444:w444=:=44444=*2+;X",
"%>+.+;4:=::7074447744=;==:;+.O4X%6+ O;;=444450:4444;=:4=4==#..,O",
"%6-$-;::::,>54444440::::5,&=$-5X@q&--;:::4446,544444:,:44::;$$6X",
"O X XXXX  .  XooXXXX X XX  XXX  O   X X  X X.  XXXXX   X X      "
};
