/* XPM */
static char *codex_new_north[] = {
/* columns rows colors chars-per-pixel */
"64 64 52 1 ",
"  c #1D242C",
". c #1B2027",
"X c #1F2730",
"o c #222A34",
"O c #242E39",
"+ c #202730",
"@ c #26313C",
"# c #28333D",
"$ c #191E25",
"% c #2A3542",
"& c #2C3946",
"* c #2E3C4B",
"= c #273340",
"- c #303E4D",
"; c #313F50",
": c #33414E",
"> c #344353",
", c #37495A",
"< c #3A4C5D",
"1 c #374857",
"2 c #3D515D",
"3 c #3C4E60",
"4 c #3E5163",
"5 c #3E5669",
"6 c #415465",
"7 c #435668",
"8 c #46596B",
"9 c #495C6E",
"0 c #4C5E71",
"q c #475E71",
"w c #4E6274",
"e c #4E677A",
"r c #516476",
"t c #526679",
"y c #546A7D",
"u c #506977",
"i c #52707E",
"p c #566E81",
"a c #586F82",
"s c #597385",
"d c #5C7689",
"f c #5E798C",
"g c #567183",
"h c #5F7D90",
"j c #617E91",
"k c #607B8E",
"l c #638295",
"z c #668699",
"x c #69899C",
"c c #6A8EA1",
"v c #6D93A6",
"b c #709BAE",
/* pixels */
".o@@@@#@@o +o#######@oX@@+.Xo@##@@@O#O + o##@Oo +O#@@@O@##@@@@+ ",
"=pzjlzcvxd@,0vvzllllzy9cjpOOqvxzfkjlxs<1*dvxjje@*yblllfzvczzzl7o",
":jywwwryyy@ecxprrrrrywddwa>>xfrrrrrytyy,plprwtw#7czrwwwpprrrrtw@",
"*ywrrrrww6@jxyrrrrrrr6prrw*6drrrrrrrrr9efrrrrw6Oyztwrrrrrrrrrr7O",
"&trrrwrrw6@darryrwrr98rrrw*1trrrrrrrrr9ttrrrrr8Oesrrrrrr0rrrrr7O",
"%wrrt69r03Oparryt09r0wrrrw-,yrrrrrttyryrrrrrrw6@19rrrrrrwrrrrr6O",
"#9rttwwr9<Oyprrtrwwrrrrrrw-1yrrrrrttrrtrrrrrrw6O6srrrrrrrrrrr0<O",
"@7rt89891>Oyprrrrrrrrrrrr6*:rrrrrttttrrrrrrrr9<O9yrrrrrrrrrrr0<O",
"%4763366,>owrrrrrrr97rwww4%&9rrrrrrwrrrrrrrww7,o<trrrrrrrrww6>*o",
"&4333333,&+798rrrw9,4w767<#o&9rrrrr6wrrrrrr88,;+<9wrrrr9wr99>>6O",
"%><33333>>+46366646>&83<<4@@we60989,<rrrrrw73,> <8480rr6wr96*e6O",
"O>3>>>>>4* >:><<<<<4e*4<3,O=74<<333>%,4<<<<,,<> >>,3333<<<<>46*o",
"XO=@@@@@@o.#=O#%%%%**oO#@@  %@o@&&%o1O%@#OOO@@O.o%@&&&*=##@oO&O ",
"wei98u971eyiiiy6  o-wwwweyye6w891X>weuuuuw: &>ygwwwwww487oX@ww9w",
"xkdpylsphxddsflz4X<dxdaagszfyaydfg8fgaadsfyo4lbhpaaaaaagd1@scsyl",
"srrrrrw4stwrrrrp,ogctrrrrrtrrw7rts9rrrrrrr6olvprrrrrrrrrw*7ztrrt",
"rrrrrwwtwrr08rr6*#lyrrrrrrrrrrrrrr98rrrrrr7Ozgwrryyrrrrr0*wfrrrr",
"rrrryp0rrrp70rw<O%strrrrrrrrrrrrrrrrrrrrrr6Ofrrrry0rrrrr7-6srrrr",
"rrrrttrrrrrwrrrw%O9rrrrrrrrrrrrr8rrrrrrwr93Owtrrrrrrrrrr0*>yrrrr",
"rrrrrrrrrrrrrrr0>#ytrrtsrr9rrrrr16wwrr9<06,owsrrrrrrrrrr6*>yr9rr",
"rrrrrrtwrrrrrrw<>#ytrrtyr79rrrrr8<>894&q8,1o8yrrrrrrrrw8>%:yw9rr",
"w98rrr9<68rrrr76,o9wrrrrr7rrrrrrrwu4>&9w4,1X7wrrrrrrrw43,O&w40ww",
"369808>=1trrrr7>>o73690rwrrrw9999966O79<<31 4489w77rw844<=&4<374",
">16343**786777,,*o,<33474767433<<>11oq<<><* 31<363,663343O&,1<<,",
"%#>-*&,4O>*&&&&*O **%>>*******-->%,= &*&&&O.&-&>>>%@*>-&& o>&***",
"<111:<426<OX@&<221>11111%*12<& .O#<2<<<<>1--2<<>o.o><11<:ooX+><1",
"fffdazzlff6@4fcllksdljkfwfjzlg<+1yvxlllzfkpzcjlf6+9zlddlf1%&8xld",
"rrrrrytyry3%fvarrrrrytrtwptttp7owxsyrrtytttlyrty6&zgtrrty1O8zstr",
"rrrrrrrrr81>xsrrrrrrttrrwrrrrr3@fdrrrrrtrrryrrrr>&srrrrrw>:jgpwr",
"rrr9rrrtr71:jyrrrrrrytr96rrrrr3@fsrrrrrytrrrrrrr4@trrrrrw-7krrrr",
"rrr6rrrtr61&dyrrrrrrrrr8wrrrrr3Ossrrrrrttrrrrrrr<&strrtrw-<drrrr",
"rrw8rrr8w<>&ptrrrrrrrrrrrrrrrr4Oyprrrrrrrrrrrrr9<&yrrrrr8-<drrrr",
"rr70rrr87>1=wrrrrrrrrrr99rrrrr3Owtrrrrrrrrrrrrr7,%trrw9r6&>twrrr",
"r7199wr03>>%97rrrrrrrr0>wtrrr8<o8qrrrrr00rrrrr04,@08r7w83*&838tr",
"3>9y4776<1>O74wrrww079>utww93<*+779rrrw77rrrr86>>@9443wq<&@>><90",
"<1e3<<<<,1%O113683796>8e367<<*O <<38994<*69983,<&@51,>54>OO-<8<,",
">-*>>>>>>-Oo>*>11>>>>=<>1111*o@ **>><<<3<#1>>>>>@+,-%>1>& O<4*>-",
"oooooo  oo++OO  OoOOOoOO@@oo+o#+OOoo o+o###Oo  +++@OoOooOoo@OOO+",
"xxzszf*<lfzzzz*O1scxxxxxccy3,4vvxzl8o1#4jxzzy*o,dxzzzlkcxxxdxxj,",
"fyrrydegyryyyg<*fxjtrrrrrsd8wzddyrpyO<ezftrys<%gxswrrrrsttrrtta6",
"rrrrrryrwrrrrw><cfrrrrrrrr0wldrrrrr7opxdrrrr0-:ldwrrrrrrrrrrrrw>",
"rrrrrrwrrrr00r><frrrttrrtrwtyrrrrrw4ojgrrtrr9*>drrrrrrrrrrrrrrr>",
"rrrrrrrrrwrrr8>>jrrrrrrrtr08rrrrrrw6odprrrrr6*:fyrrrrrrrrrrrrrr>",
"rrrrrrrrr77rr<>:strrrrrrrrrrrrrrrr0<oyyr0r0r<*:prwrrrrrrr9rrrrr>",
"7rrrrw999>898,*-rwrrrrrrrrrrrrrrrr9<o0wrw869>--yw69rrrrr6<rrrr8-",
"4wwrr6r7>>t64>*@96rwwrrrrrrrrtttww,*+4477<83**&7390rrrr6:ytrw8<-",
"48688487>8633>& %>9w0rrrr9wrrrrt8<%*.67,7383<>%q48w9rr965yw96<<>",
">4<3333<>><3<5=Oy9589r90r66rrrr0<&w, ,1<4<<>4@@,13636464>q43<<3>",
">>>>1,,>=<51**o#7311,,,,,,>-1,,,%4,* <-,>>>,*oO,>*,,,,,14%1,,,,&",
"OOOOOOOOX&OOOO. =OooOOOOOOOoOOOOX@@o.O#oOOOOO .@O+OOOOO@% OOOOO+",
"9pssd9: %-ysssfwydsddst=*&X&<sddga9dfdds4-8sssy<%ys9- &Owllsptg9",
"fdyygftO1dvjyyytyfyafysf4,o6lxyyyytddyypp8jpyypwdfyywo>echyastsp",
"rrrrrw4 yvyrrrrrrrrrrrrrj<+gxtrrrrrrrrrw68trrr9slwww6+4cywwrwrw0",
"rrttrw<+jfrrrtttytrrrrrrt6ofdrrrrrrrrrr99rrrrr9tr00w<oddwwwrrrr4",
"rrtttr7oyyrrrrrrptrrrrrr04+yyrrrrtrrrrrrrrrrr06wr0001oyywywrrrr4",
"rrrrrr7o4rrrttr80rrrrrrr03+ydtrrrrrrrr7rrrrrr77yrrr9<owyrtw6rrr4",
"r8wrr9<+ygrrrtw9rrrrrrtr8<+ygrrrrrrrrrrrrrrr08yrrrr71oygrrrrrrrr",
"rrrw77> 9trrrttrrrrrrrtr8< 7trrrrr9rrrrrrrrrw8rrr7w<1o6trrrrrrrr",
"r8ww64> 38wrrr7rrrr7rrr94< 79wrrrr6trrrrr99r7twrr80,,o8wwrrrrw8r",
"0rw94<> 4740916009wrrr7<<, 6830wrrwr4400r099389ww7<>>+4430rrrw94",
"486<,>*.4<<<-4e6336898<<>> 4<<3677881764784,-6366<<>> &*<4708733",
"<33<*5>.<<3&4833333<1,<33> <<<73<<<*77<<3<>Ow6333,,<> 77>834<33>",
"->>&1>%.>,=*4*>>>>>>%&**-=.1>,,>>*o>,>>>>&o8,>>>-*>*= 1<4>>>>-*&",
"oOOO@Oo$O@oO@OOOOOOOoOOO@+$O@O@OOO+OOOOOOoo%@@OOOO#@o$@@@OOOoOOO"
};
