/* XPM */
static char *codex_new_south[] = {
/* columns rows colors chars-per-pixel */
"64 64 50 1 ",
"  c #2C1910",
". c #341C11",
"X c #3B1D11",
"o c #381B0F",
"O c #3E2112",
"+ c #421F11",
"@ c #442112",
"# c #4B2312",
"$ c #4F2813",
"% c #542412",
"& c #5C2612",
"* c #5D2914",
"= c #532B14",
"- c #5D3016",
"; c #612712",
": c #642913",
"> c #6C2C14",
", c #732E15",
"< c #782F15",
"1 c #6C3216",
"2 c #693417",
"3 c #753116",
"4 c #7C3116",
"5 c #753A19",
"6 c #7C3D19",
"7 c #783618",
"8 c #7D411A",
"9 c #833417",
"0 c #893617",
"q c #8D3917",
"w c #833518",
"e c #833B19",
"r c #8C3A18",
"t c #883717",
"y c #933A17",
"u c #933D19",
"i c #993F19",
"p c #88451B",
"a c #96411A",
"s c #9C431B",
"d c #994B1D",
"f c #94501F",
"g c #A2461B",
"h c #A44A1D",
"j c #AA4D1D",
"k c #AC521E",
"l c #A2511E",
"z c #B1551F",
"x c #B65921",
"c c #AD5720",
/* pixels */
"X2855p6*566pp1665685@ #%53111682-653p6:11@ @6555:+1516p8561551#.",
"5ksurgrushhxgrhhhjar4Ocharttrttussaujr333:.dkarw4rtttuajhrtsrwu%",
"6a0ww9yywtw9wwwtu9,,>@h4,,,,,4444uiyww4,>:.ct4,,449wtwwy9,,4,,3%",
"1t9wwyy9440ywwwwt4,,&.93>,,<494449qwwww93:.a,4,49uyt09qt9,,,,4,@",
":4<3tut949qwwwww4,,>&Os4499<3<,49999wwtq9,.>4944uh49tu90t3,,,,>X",
"%3>40994,49www444>,,#Xr9wu,4w9w444,4wtqt9:.7rw49w499t304<,,,,>;@",
":3;>3r4,>,3943:,,>,,%Xt9a*>wwwwww99wwtt9:&.a3,9wwww4,,,w,,,,>;:@",
"%>:,4>;>33>>>,,&>,:*:.,r::44>3ww43>>w4>&::.44,:4w9>,4s&&<4,>&:>@",
"X&&3:##%::%%;:3*%:;:% %>%%:;&&>>%&:%*%%&;# #>*%;,>#:3>#;>>#*&:%.",
" ................XXX  .......... .X.......  .............. .... ",
"sss6ujhsu:.%ahhjxku4kxgihgshgw9XXlzhhhgh4ejishzrshsa:.2xks3jgrhc",
",,,tu4,334+ljs0tisujg99ru944t9q&2zq44yirudw9yu94499y4Xcs4,rut4,,",
",,,33,,,,>Xcqqqu9t9tw09944u4,39%8g9,,9yu944999<<,499>.k<<49www43",
",,493,,,,;.69tu0t949449<,re>,,,#293<,34,4t9999<,,44,:.r,tq99wr3,",
"44444,,,>*.erw99t,4w33,,,,>,,,;X:44,,<4;9tw4444,4,>,:.r4<4w4a3>,",
",444,,,;,;.d94444,94,>,43,,,,,,X*<,49q>&49444,,,,>,>%.r,,494::>,",
",,,,w,:%::Xt<,44994<:>,33,,,:>,@*,>,t%&9t4,444>>>,,>&.4<,44,>>>4",
">>&43;%%>&.&>;:,,,>&;>>>:>&&:;%X@:&:%#>4<,:,>:&:>>&&&.*<>*>::%>4",
"+@+@++X+@X  ++@@++X.++++++XX++X  X+++X++++X+++++++X+.  #++++X.@@",
" 2ppepp&:ppfp%@:pe61X X8p6pfe7efpe>>eppp3@ X6fff77pppf3+2fe66e& ",
"5xuqsqgtr4yt00>sq9wy4.pzs0999<9sr<,tisy94<Xjjst,tssuqstyug0<99u%",
"1it0444<499993iq9999,@zi944,<9944,,9q4<9<>.kr3,,9u09999w3,,,,,4#",
":9t<4,,49ww4<9qqq9y4:@h99<,444444,,44:,,,:.s>>,4qy9q<4444,,,,,,+",
"$yt4>409wwwq049yyyy9:X94<,,<9,,,,,,,>,,,,;.3:<4<99te>,,44,,,,,*X",
"&443,,9944ww0q0q999,;Xi<,,r<,,<<>>>>4>>:>&.>7,,440,:,,,,44,,,,:X",
"*,:>44>4,,9w9w09t944:Or,>3w>,,,&:>,,,>>>:;.r4>,,4,,,,,,44,,>:>*@",
"$>*3e>4>*,9349ww>30>&.<>>:&>9>+%;>:&>,>>;&.,>:>::,9,;&,4,>:>,&:+",
".%%%@:;%%&*%&::%%>&%X @%%%%&&++%%&%@#&%%%@ X&%%%%&;%@%%&&%%%###.",
"==$$$$#$#X .#=#$#$X$=*=$##@#$#.  @=$$@#$@.##@#$$##@@. .=$#$#X@$$",
"xkigjurar3X>jkuugs:jhzhuusisgu3.=ghuatuga3hrtrrrruyw:.exgsja4uaa",
"449t093,,,Xhi099t3rqqt4440ss00q%5g<<9,,9rs99,,,44><<>.za0iy<44w4",
",,,4<94,,;.tyt9w494w94,49tqtww9%5t,,4,,,,,4,,,,4,,,,;.s90q999w44",
",,,,33,,>:.w094wwwwww44wtg99ww4##:t,,<,,,49,4,,,,,,>&.>r9ww94944",
"3<94,>,:,:.4ww99wwwwwwwwu>>4<4>@2s4<4,,,34&94,,,,4,>:.s09wwt,9,4",
">4t::>>:>&.4wwwrwwru,ww9,>>,4>>@13>>,,,,,>43,,,,,:&,;.s9w44,4:,,",
">:&&,3:;:>.,<,r4394%:,9,,>,4,:>#%3>;;>>,>4,>>,,>;&,:%.3,uw>,::>>",
";*%#3&%%>%.+>::&::%#:&:;:&&:&&%.X&&%&%%;&:;#@;;%&&&%#.#::%&;;&&&",
" X@@@@@OXX@O@@@@X@@X. .@@@@@O@@@OXXXOXO@X. .O@@@@X@@@#@@X..@@@X.",
"#djghjju37hshgsgehsr%.ekckkhsjxxstt>rtsgr:.5kjsshrgjxzhaw*6hhgtX",
"5zuq0994uuq9t0yurw99>@xit990usgt9,4u9wwt9,.xs9490yqyu994>rgu0tt%",
"8gyiq9<,,4www49494,4:@s,,449ti99994,,www4>.s<440y09q0944rutq494#",
"2u9ww4,,34www4,4994,&.,4449q099w994,,3494>.:,,9944999ww4499t,44@",
"#4444,,39wwwr,,,404:&Xt<tw4,49w944,>,,,4,:.u<,,49<9yst94ww9,>4>@",
"5u>>>,49444w,:,,44,>*Xw><4ry9ww4444>,9>>>:.t,,>>,<9aw4wwww,>>>>#",
"*43,><99944944,,&:,>&.,:>494944,;,9,::&:,:.,::>>:,a>;4944,:>>,>@",
"X::>;,,:&,:>>&&%#&:;@.%:,>&>>::%&:,:+%;:;% %::,*&>&#>>:,:&#&,>%.",
" ...XoX..XXX.....X..   .X..XX...X.........  .X.... XXX.XX...X.. ",
"xjrrsj7du;.=sjkhsauusrjxh:7hss4.@ajsstus:dxzrrkssgir% &jkju>>ksc",
"www4<<t444Xlu49tq0,,99qw44r9,4q&5hyq449qasur4,4<<4<0,Xsu<449ur49",
"wwwy9<3,4,Xh49wy4>>,99ww44444,4%8u93,,4y099,,,,49>,4>.tw,,494499",
"4ww9949<,:.3t09:&>,is99ww94,4,>#1t,,,4w999<43,,<<494:.a<,,w09ww4",
">rw4,4444&.a004>>,4rw90tw9<,,,:+#>,,49wq9<,<93,,,,44;.>>,<049w3,",
">44,,349:&.w99994,34999499,::>>+*r>4w499,,,3<,,,,,4:%.7,:>,<44,4",
",:,,,>>:::.:<,44,,,<<4>;,44&:>:+24:>4,4,,>44<,,,<<::&.t::,,,,,3,",
",,>>:%%>>&.%;::,;&&,,>;;>:@*4&%X#>&:>&,>&><,94>,:&:>%.*:&&>>:>:>",
"####@X+#@X  @###@@@+#####X.#@@+  +@@+@@@@@X@%#X@@##+X .#@X+##@@@",
" :672ppp2@2635113:1:X #6p1331>8635@*6511>@ X558663&2pp516577;>* ",
":zi0ggrrurasii990,94>Okjr9ttwtqrttwsr9444,.dkiqir43jksssu0t0:44+",
"5i4ui99wwrqy94,4,4,,:@zq444,4999wwt499<,,>.xi04,9usq99iqq94,,,>+",
"*340wwwww9994,<,,,,>&Os<44,,,904wwww44,4,;.h04,,<>,44494993,,>:+",
"X>t94www0q9>>44,,,,:%X0<,>>,,,:4www9<499>%.3<4<4<<4,,444434,>:&X",
":r,449499t>%>94,,,>>%X449>>,,>,<4444<90;&*.u,,94,:,,,3<<>>,>;&,@",
"%,:>4,>:,>:>w>,:&;>&#.::+>3,>>%:>,>>,>%%:%.>4>>:%&&>>>&:%&>%#>:+",
"X@XX##@X@@@X@@#@X#@@X XXX%@@@@+@@#@X#+X@@X X@@XX@####+.@@@+.+#+."
};
