/* XPM */
static char *codex_new_west[] = {
/* columns rows colors chars-per-pixel */
"64 64 48 1 ",
"  c #0D0D0E",
". c #131315",
"X c #161619",
"o c #1A191D",
"O c #18171B",
"+ c #0F0F11",
"@ c #1D1D22",
"# c #201F25",
"$ c #1F2025",
"% c #222126",
"& c #25242B",
"* c #29262D",
"= c #29282F",
"- c #27282E",
"; c #2C2B33",
": c #322E35",
"> c #312F39",
", c #2F3037",
"< c #323037",
"1 c #35343D",
"2 c #3A353E",
"3 c #373640",
"4 c #393741",
"5 c #3B3944",
"6 c #3F3C49",
"7 c #413B46",
"8 c #423D4A",
"9 c #493E4B",
"0 c #463B44",
"q c #46404C",
"w c #4A424E",
"e c #50434D",
"r c #4D4451",
"t c #524653",
"y c #544956",
"u c #594A56",
"i c #564A59",
"p c #5B4D5A",
"a c #544758",
"s c #5E505E",
"d c #62515E",
"f c #604E5C",
"g c #645462",
"h c #6D5969",
"j c #6A5766",
"k c #725C6C",
"l c #6F5A6B",
"z c #7A6373",
/* pixels */
">2427777w9O.*yw;;5fu9fd9&o0puw727><50w88te@.;ue;>wpwwww9&@0ppw71",
";15223224y;.254531qqartj9%6724866;>642215i>.<855319arrrq>&q64553",
"1-<44343257.7356688888685#84442<;1144443459X7566665r88885%w4443;",
"4414444844r.u66688888868w@7541&;7444444345w.u5688868888qi&q51;-1",
"4684158544q&9768888886418@;44&*544444458448%q78888668888r*;44;;6",
"6r>1;q54447&7;588886866<>Xo;1<;54444465524w*7;46866888616#@;3115",
"*;&@%;<441*%>>1888634666<o.Ooo@%*11;52<122:%;:26866458861@.ooo@&",
":%XO&@&;&o.X=166565;1665;o17pdpw&@@%%o-;;@.X;166655;1865<@<7upt0",
"ig2@qi7421:@@@&*;<;1;11<;@7prwqw8p1.41*=&&%@@#&*>1;1;331<@5prywt",
"485O4dggpggt90:X@&#&;&21:=@14555581O7hlkghjpe2=.@&%-;&21:*@65654",
"447Otw4445q55qg:777<@;wq88#45555557Oir55w545tgi;224*@:wr88&35655",
"555*g2344444446&566rw@6444@85655664:hw5555555531yti8*@8554@85655",
"54;>5<14444454q%<66rr&;;>;or465555;156555555555;125q6@;;1;ot5655",
"54;;444444556681&1165&o:&%Xt445555;>85555555555=;2221@#:%%Xy5566",
"51%=444<15555584&542*.8r75@5944451-e65555555555&&12<&Xyw65o5w555",
"<;O-1446;455556r@*;@.Oq111O*5>;;1;#7555555555551o&&X+O821<.=5<;;",
"%%@*1455115566w4.o@pt.;;%;.@@o#%&#@1555536555571..=gt.;;--.o@O@#",
"tpw-568666568w>1&ghy1O;<<2<:%1rwqw5-85551>55565;qggr1 o::2<;%<rw",
"444%6865866885;<8r84%2kgpigg1<4322<%54158665555&6q55&:gppygg<>44",
"42;%6611868w841&5661@dq88865;-4222-<r7#48666444#1551op533225;&44",
";;o%5<*3445=31;O=11;#r5888861@&&;=O&63%&11121-#@-;<;@t145224;o&-",
"$oo%&@##@oo@&@o.XXX@@r6888885<.@%O%%@oXX...oo...XXO@@w121221;&.@",
"<278ykkkt@pzzjirq88;&q88888845-<2upwtghky%pzzgpw858<%511=34211X*",
"wytt8953w;w57944532;9688888886;4ri5337748;r44945441&4<14113325&4",
"456444414%595234341@468886666>@1444444424%71233345<@1112;;121;%1",
"1<4444495%<51244445o566664141%@11>44444w5%tt1444454X;1;;@111<-%1",
"24144557<@;*-<44435o%oOo#;&oO@@;41244447<@*w1134425X@o@X @@oo%&<",
"<42445455%<26<1431-%p8&%rprr5%o%<51424457%%755<<31;=p9;@wprw2#o-",
"%44444444&1248>445>;652;q2335q;;%53144444&152455<1;;557*w4435q<-",
"47444441,o,242&344=%531%523321%438252341,o<122255;@&43<$533321%5",
"1<11;&;;@.=<<1&;1;&@<1&o;;1&;&@<1<1<;&;-%X=<<11121-@<1%O;;1&;&@1",
"%%@O=wdd:.o@@%@o%@OX@O..o@$XoOX$%@o.9tpd<.o@@&;;-@@X@O..o@%X@XX$",
"w;r4rrqwtpXo2uw;1yjp9yu9&@9yw77%piwwqrqripoo2py;1tjpwggt&o9ttw77",
"8&2rq4224w%;irt545wriiai7%75445&r883<4445r&;ita545rriraa9%674465",
";qy82544247;8w8688886888>@82441Oq4432456457*9r86686666684@q24341",
"5445;444445Xu86666666888t@654<%<;4444q84248Xu96688666668t%55441;",
"44455144448&976688866668r@;42;-8<444112444q%9868888886449&;444;4",
"44211<4421<;7;46666888655Oo;1<28:5441144442=5;388868865<1@@;11:5",
"*<;&%&421<--1>16665246663o.Oo@&*@;1<;1222<&&1:3686634665<@.Oooo%",
">@XX@X=;;-&%;<56554;1664;o18ppiy1@o@@$;;-%%$;266564;1664>@18psy9",
"yd5o59:=***@@@#&;1<1;11;;@5iqrwr8d1X52;*&&&@@%%%;1;1;11;;@5pwrqr",
"475O2idgghzue0;.o&&-;&1<>*@34655581O5hzjijgu90:.@%@&;&1::=@55554",
"558Otr75w4457ry;221&@;wqqq%24655557Og83344q57rg;752:@;qw8q%25555",
"555;j95554444411rrrw=#7444@64555655:p1444444447;666w9$5454@85655",
"55;:55555555544=>25q8@;;<;ot555554;12<144444548*366rw&;;;;oy5655",
"54;:85554455544;;1121@%:&%Xt545654;;33344444555>;2154%O<*%.y5455",
"53-085554515444;o;2<&oi855@5q44551%;344<14444555&541&Xqq55@59545",
"1;&565554;454452.%;%.o711<X;4<;;1;O;2445;444556y@;>#.o811<X*4:;;",
"&&%:555524844551..O9e.;;-&.o@o%&&%#&;354114566q7.X@pt.;;%;.o@O#%",
"qr8&55553154555;<ggy2.*1222:&1twqr7=566666566q11&gha1X;2221:&1tw",
"222;r5441565544=2854%;hpttjg<142231;6665666697<;4t75%:kprwpg>:34",
"22;;68;;8556444*<541op522225;-4322=&661>668w851%4651og423324;&22",
";;@%551O<1111*%#=<<;@t124223<@&&;;o%5>*3447;34;X;<1;@9134324<o&-",
"@@X@%##XOXo#%ooOXXO@@w111221<-.@@oO%&@#%@@@@&%@XXXXoo5;23322<&.o",
"::5wijjjw%pzhsiwq78<%511*12221X=:<68ihhkr#izjsyr766;&2;1322211o=",
"qtw84944w=r55833411-21121<2224%4qrry7964q=w55844411&416;322111&1",
"474444424%533443451@1112;*121;%1175444413%58522224<@<115;1111;%1",
"114444475%tw1444354X,1;;@<12<&$<<<4444495#;71223354X,<;;-;<2<&&1",
"31144447>@;91144435X@@@X @@oo%%;24144447<@;&*<23315X@@o.O%@oo@&<",
"151444455%%655><21-*u8;@wpt92oo@<51444455%;16<1342-&uq;@wprw2@o=",
"#23444445&152554<1*:657=w22358;;@42344432&1227>244>:655=w43358:;",
"47444441;@1224257;@&431%512221%256234441<@<222=444;%43>%633221%5",
"2<11;&;=%.=1<2113<&@<<%o;=1&;&@,1<11;&;-%.=<<1=-1;-@<1%o;-1-;*@<",
"$@@@O2dg:.oo@$&;-@OXo.  X@@XoX.@@@@@X0pj>.ooo@@X&@OXo.  X@@XoXX@"
};
